X:1
T: Miss Mary Anne Robertson
C:
R:Reel
Q: 232
K:D
M:4/4
L:1/8
|:A|FD DD FD FA|BG AF GE EA|FD DD FD FA|dA BG FD DA|
FD DD FD FA|BG AF GE EA|FD DD FD FA|dA BG FD DA|
de fg ab af|ge fd ed Bc|de fg ab af|ge ag fd dc|
de fg ab af|ge fd ed Bd|Ad FA Bc dB|AF GE FD D:|
